client/resources/iconsets/breeze/src/svg/16x16/icon_calendar_blue.svg

<svg xmlns="http://www.w3.org/2000/svg" width="16" height="16" viewBox="0 0 16 16">
  <path
     style="fill:#6d6d70"
     d="M 1 5 L 1 14 C 1 14.554 1.446 15 2 15 L 14 15 C 14.554 15 15 14.554 15 14 L 15 5 L 13 5 L 13 13 L 3 13 L 3 5 L 1 5 z M 5 6 C 4.446 6 4 6.446 4 7 C 4 7.554 4.446 8 5 8 C 5.554 8 6 7.554 6 7 C 6 6.446 5.554 6 5 6 z M 8 6 C 7.446 6 7 6.446 7 7 C 7 7.554 7.446 8 8 8 C 8.554 8 9 7.554 9 7 C 9 6.446 8.554 6 8 6 z M 11 6 C 10.446 6 10 6.446 10 7 C 10 7.554 10.446 8 11 8 C 11.554 8 12 7.554 12 7 C 12 6.446 11.554 6 11 6 z M 5 9 C 4.446 9 4 9.446 4 10 C 4 10.554 4.446 11 5 11 C 5.554 11 6 10.554 6 10 C 6 9.446 5.554 9 5 9 z M 8 9 C 7.446 9 7 9.446 7 10 C 7 10.554 7.446 11 8 11 C 8.554 11 9 10.554 9 10 C 9 9.446 8.554 9 8 9 z M 11 9 C 10.446 9 10 9.446 10 10 C 10 10.554 10.446 11 11 11 C 11.554 11 12 10.554 12 10 C 12 9.446 11.554 9 11 9 z "
     />
  <path
     style="fill:#19b5f1"
     d="M 3.6796875 1 C 3.3026272 1 3 1.3026272 3 1.6796875 L 3 2 L 2 2 C 1.446 2 1 2.446 1 3 L 1 5 L 3 5 L 13 5 L 15 5 L 15 3 C 15 2.446 14.554 2 14 2 L 13 2 L 13 1.6796875 C 13 1.3026272 12.697374 1 12.320312 1 L 10.679688 1 C 10.302626 1 10 1.3026272 10 1.6796875 L 10 2 L 6 2 L 6 1.6796875 C 6 1.3026272 5.6973728 1 5.3203125 1 L 3.6796875 1 z "
     />
</svg>

<svg xmlns="http://www.w3.org/2000/svg" width="16" height="16"><path d="M1 5v9a1 1 0 0 0 1 1h12a1 1 0 0 0 1-1V5h-2v8H3V5H1zm4 1a1 1 0 1 0 0 2 1 1 0 1 0 0-2zm3 0a1 1 0 1 0 0 2 1 1 0 1 0 0-2zm3 0a1 1 0 1 0 0 2 1 1 0 1 0 0-2zM5 9a1 1 0 1 0 0 2 1 1 0 1 0 0-2zm3 0a1 1 0 1 0 0 2 1 1 0 1 0 0-2zm3 0a1 1 0 1 0 0 2 1 1 0 1 0 0-2z" fill="#6d6d70"/><path d="M3.68 1a.68.68 0 0 0-.68.68V2H2a1 1 0 0 0-1 1v2h2 10 2V3a1 1 0 0 0-1-1h-1v-.32a.68.68 0 0 0-.68-.68H10.68a.68.68 0 0 0-.68.68V2H6v-.32A.68.68 0 0 0 5.32 1H3.68z" fill="#19b5f1"/></svg>
